icons/1_Primary/Infomaniak.svg

<svg xmlns="http://www.w3.org/2000/svg" width="1024" height="1024" fill="none">
   <g clip-path="url(#a)">
      <path fill="#9ABEFF" d="M512 1024c282.77 0 512-229.23 512-512S794.77 0 512 0 0 229.23 0 512s229.23 512 512 512Z"/>
      <path fill="#fff" d="M696.8 281H475.66v225.45L545.88 427h115.5l-88.17 83.75 93.71 156.49H560.66l-49.93-96.66-35.07 33.82v62.83h-96.1V281H327.2a46.196 46.196 0 0 0-32.668 13.532A46.196 46.196 0 0 0 281 327.2v369.6a46.196 46.196 0 0 0 13.532 32.668A46.196 46.196 0 0 0 327.2 743h369.6a46.196 46.196 0 0 0 32.668-13.532A46.196 46.196 0 0 0 743 696.8V327.2a46.196 46.196 0 0 0-13.532-32.668A46.196 46.196 0 0 0 696.8 281Z"/>
   </g>
   <defs>
      <clipPath id="a">
         <path fill="#fff" d="M0 0h1024v1024H0z"/>
      </clipPath>
   </defs>
</svg>

<svg width="1024" height="1024" viewBox="0 0 1024 1024" fill="none" xmlns="http://www.w3.org/2000/svg">
<g clip-path="url(#clip0_2_2511)">
<path d="M512 1024C794.77 1024 1024 794.77 1024 512C1024 229.23 794.77 0 512 0C229.23 0 0 229.23 0 512C0 794.77 229.23 1024 512 1024Z" fill="#9ABEFF"/>
<path d="M696.8 281H475.66V506.45L545.88 427H661.38L573.21 510.75L666.92 667.24H560.66L510.73 570.58L475.66 604.4V667.23H379.56V281H327.2C314.947 281 303.196 285.867 294.532 294.532C285.867 303.196 281 314.947 281 327.2V696.8C281 709.053 285.867 720.804 294.532 729.468C303.196 738.133 314.947 743 327.2 743H696.8C709.053 743 720.804 738.133 729.468 729.468C738.133 720.804 743 709.053 743 696.8V327.2C743 314.947 738.133 303.196 729.468 294.532C720.804 285.867 709.053 281 696.8 281Z" fill="white"/>
</g>
<defs>
<clipPath id="clip0_2_2511">
<rect width="1024" height="1024" fill="white"/>
</clipPath>
</defs>
</svg>
